resources/svg/border-outer.svg

<svg xmlns="http://www.w3.org/2000/svg" viewBox="0 0 15 15" fill="currentColor"><path fill-rule="evenodd" clip-rule="evenodd" d="M1 1h13v13H1V1zm1 1v11h11V2H2zm6 3H7V4h1v1zM5 8H4V7h1v1zm3 0H7V7h1v1zm3 0h-1V7h1v1zm-3 3H7v-1h1v1z" fill="currentColor"/></svg>

<svg xmlns="http://www.w3.org/2000/svg" viewBox="0 0 15 15" fill="currentColor"><path fill-rule="evenodd" clip-rule="evenodd" d="M1 1H14V14H1V1ZM2 2V13H13V2H2ZM8 5H7V4H8V5ZM5 8H4V7H5V8ZM8 8H7V7H8V8ZM11 8H10V7H11V8ZM8 11H7V10H8V11Z" fill="black"/></svg>
